X:41
T:Sport of the Chase, The
R:hop jig
Z:Also on A, #42
Z:id:hn-slipjig-41
M:9/8
K:G
G2G B2G BdB|G2G B2G BdB|C2C E2C EGE|D2D F2D FAF:|
G2g g2d BdB|G2g g2d BdB|c2c e2c ege|d2d f2d faf|
gdB gdB gdB|gdB gdB gdB|ecA ecA ecA|fdA fdA fdA||
<end>
<start>
